src/resources/assets/navigation.svg

<svg width="16" height="16" xmlns="http://www.w3.org/2000/svg">
    <path d="M 1.9880374,11.737532 H 14.012521 c 0.269227,0 0.487479,0.218252 0.487479,0.487479 0,0.246792 -0.183392,0.45075 -0.421331,0.483029 l -0.06615,0.0045 H 1.9880374 c -0.2692272,0 -0.487479,-0.218252 -0.487479,-0.487479 0,-0.246792 0.1833921,-0.45075 0.421331,-0.483029 l 0.066148,-0.0045 H 14.012521 Z m 0,-4.2228649 H 14.012521 c 0.269227,0 0.487479,0.2182518 0.487479,0.4874791 0,0.2467917 -0.183392,0.4507496 -0.421331,0.4830286 l -0.06615,0.0045 H 1.9880374 c -0.2692272,0 -0.487479,-0.2182513 -0.487479,-0.4874786 0,-0.2467917 0.1833921,-0.4507498 0.421331,-0.483029 l 0.066148,-0.00445 H 14.012521 Z M 1.987479,3.29 h 12.024484 c 0.269227,0 0.487479,0.2182518 0.487479,0.4874791 0,0.2467916 -0.183392,0.4507497 -0.421331,0.4830289 l -0.06615,0.00445 H 1.987479 C 1.7182518,4.264958 1.5,4.0467062 1.5,3.777479 1.5,3.5306873 1.6833921,3.3267292 1.921331,3.29445 L 1.987479,3.29 h 12.024484 z"
          fill="#ddd" stroke-width=".65"/>
</svg>

<?xml version="1.0" encoding="UTF-8"?>
<svg xmlns="http://www.w3.org/2000/svg" xmlns:xlink="http://www.w3.org/1999/xlink" width="16px" height="16px" viewBox="0 0 16 16" version="1.1">
<g id="surface1">
<path style=" stroke:none;fill-rule:nonzero;fill:rgb(86.666667%,86.666667%,86.666667%);fill-opacity:1;" d="M 1.988281 11.738281 L 14.011719 11.738281 C 14.28125 11.738281 14.5 11.957031 14.5 12.226562 C 14.5 12.472656 14.316406 12.675781 14.078125 12.707031 L 14.011719 12.710938 L 1.988281 12.710938 C 1.71875 12.710938 1.5 12.496094 1.5 12.226562 C 1.5 11.976562 1.683594 11.773438 1.921875 11.742188 L 1.988281 11.738281 L 14.011719 11.738281 Z M 1.988281 7.515625 L 14.011719 7.515625 C 14.28125 7.515625 14.5 7.734375 14.5 8.003906 C 14.5 8.25 14.316406 8.453125 14.078125 8.484375 L 14.011719 8.488281 L 1.988281 8.488281 C 1.71875 8.488281 1.5 8.269531 1.5 8.003906 C 1.5 7.753906 1.683594 7.550781 1.921875 7.519531 L 1.988281 7.515625 L 14.011719 7.515625 Z M 1.988281 3.289062 L 14.011719 3.289062 C 14.28125 3.289062 14.5 3.507812 14.5 3.777344 C 14.5 4.023438 14.316406 4.226562 14.078125 4.261719 L 14.011719 4.265625 L 1.988281 4.265625 C 1.71875 4.265625 1.5 4.046875 1.5 3.777344 C 1.5 3.53125 1.683594 3.328125 1.921875 3.292969 L 1.988281 3.289062 L 14.011719 3.289062 Z M 1.988281 3.289062 "/>
</g>
</svg>
